icons/bhi_lock.svg

<svg xmlns="http://www.w3.org/2000/svg" viewBox="0 0 512 512" enable-background="new 0 0 512 512"><path fill="#010101" d="M438.6 173.1h-22.6v-28.2c0-98.9-79.7-145.6-160.1-145.6-80.4 0-159.9 46.7-159.9 145.6v28.2h-22.7c-23.9 0-41.3 19.6-41.3 41.3v256.3c0 23.9 19.6 41.3 41.3 41.3h365.3c23.9 0 41.3-19.6 41.3-41.3v-256.3c2.1-23.9-17.4-41.3-41.3-41.3zm-278.6-15.2v-15.1c0-58.8 39.4-78.8 95.9-78.8 56.5 0 96.1 22.2 96.1 78.7v30.3h-192v-15.1zm119.8 204.2v63h-54.3v-63c-21.7-10.9-36.9-32.6-36.9-56.5 0-34.8 28.2-63 63-63s63 28.2 63 63c0 23.9-13.1 45.6-34.8 56.5z"/></svg>

<?xml version="1.0" encoding="utf-8"?>
<!-- Generator: Adobe Illustrator 19.2.0, SVG Export Plug-In . SVG Version: 6.00 Build 0)  -->
<svg version="1.1" id="Layer_1" xmlns="http://www.w3.org/2000/svg" xmlns:xlink="http://www.w3.org/1999/xlink" x="0px" y="0px"
	 viewBox="0 0 512 512" enable-background="new 0 0 512 512" xml:space="preserve">
<path fill="#010101" d="M438.6,173.1H416v-15.2c0-2.2,0-2.2,0-4.3c0-2.2,0-6.5,0-8.7C416,46,336.3-0.7,255.9-0.7
	C175.5-0.7,96,46,96,144.9c0,2.2,0,6.5,0,8.7c0,2.2,0,2.2,0,4.3c0,0,0,10.5,0,15.2H73.3c-23.9,0-41.3,19.6-41.3,41.3v256.3
	c0,23.9,19.6,41.3,41.3,41.3h365.3c23.9,0,41.3-19.6,41.3-41.3V214.4C482,190.5,462.5,173.1,438.6,173.1z M160,157.9v-4.3v-4.3
	c0-2.2,0-4.3,0-6.5C160,84,199.4,64,255.9,64c56.5,0,96.1,22.2,96.1,78.7c0,2.2,0,4.3,0,6.5v4.3v4.3v15.2H160V157.9z M279.8,362.1
	v63h-54.3v-63c-21.7-10.9-36.9-32.6-36.9-56.5c0-34.8,28.2-63,63-63c34.8,0,63,28.2,63,63C314.6,329.5,301.5,351.2,279.8,362.1z"/>
</svg>
